X:1
T: Hard Times
N:
C:
S: Play  3  times
A:
O:
R:
M:3/4
K:Em
I:speed 150
%W: A1
% voice 1 (1 lines, 23 notes)
K:Em
M:3/4
L:1/16
E4 G4 F2 E2 |B8 B4 |e6 ^d2 e2 f2 |^d6 ^c2 B4 |B4 e4 B4 |c8 c4 |B2 A2 A6 G2 |G12 |
%W:
% voice 1 (1 lines, 24 notes)
G4 B4 A2 G2 |d8 d4 |e6 f2 g2 a2 |f6 e2 d4 |d4 f6 f2 |f4 e6 e2 |d2 ^c2 c6 B2 |B12 |
%W: A2
% voice 1 (1 lines, 23 notes)
E4 G4 F2 E2 |B8 B4 |e6 ^d2 e2 f2 |^d6 ^c2 B4 |B4 e4 B4 |c8 c4 |B2 A2 A6 G2 |G12 |
%W:
% voice 1 (1 lines, 24 notes)
G4 B4 A2 G2 |d8 d4 |e6 f2 g2 a2 |f6 e2 d4 |d4 f6 f2 |f4 e6 e2 |d2 ^c2 c6 B2 |B12 |
%W: B1
% voice 1 (1 lines, 26 notes)
e4 f4 g4 |^d6 d2 e4 |B2 c2 c6 B2 |c6 A2 d4 |B6 B2 c2 d2 |e6 e2 f4 |g4 g6 f2 |g4 B6 B2 |
%W:
% voice 1 (1 lines, 25 notes)
A6 A2 B4 |c6 d2 B4 |e f g2 f6 e2 |^d4 f6 f2 |g4 ^g6 g2 |a6 ^c2 ^d4 |e2 f2 f6 e2 |e12 |
%W: B2
% voice 1 (1 lines, 26 notes)
e4 f4 g4 |^d6 d2 e4 |B2 c2 c6 B2 |c6 A2 d4 |B6 B2 c2 d2 |e6 e2 f4 |g4 g6 f2 |g4 B6 B2 |
%W:
% voice 1 (1 lines, 25 notes)
A6 A2 B4 |c6 d2 B4 |e f g2 f6 e2 |^d4 f6 f2 |g4 ^g6 g2 |a6 ^c2 ^d4 |e2 f2 f6 e2 |e12 ||
